germany/municipalities/07233038.svg

<?xml version="1.0" encoding="UTF-8" standalone="no"?>
<!-- Created with Inkscape (http://www.inkscape.org/) -->

<svg
   xmlns:dc="http://purl.org/dc/elements/1.1/"
   xmlns:cc="http://creativecommons.org/ns#"
   xmlns:rdf="http://www.w3.org/1999/02/22-rdf-syntax-ns#"
   xmlns:svg="http://www.w3.org/2000/svg"
   xmlns="http://www.w3.org/2000/svg"
   xmlns:sodipodi="http://sodipodi.sourceforge.net/DTD/sodipodi-0.dtd"
   xmlns:inkscape="http://www.inkscape.org/namespaces/inkscape"
   width="141.47244mm"
   height="159.45134mm"
   viewBox="0 0 141.47244 159.45134"
   version="1.1"
   id="svg8"
   inkscape:version="0.92.5 (2060ec1f9f, 2020-04-08)"
   sodipodi:docname="DEU Kerpen COA.svg">
  <defs
     id="defs2">
    <inkscape:path-effect
       effect="spiro"
       id="path-effect12566-8"
       is_visible="true" />
    <inkscape:path-effect
       effect="spiro"
       id="path-effect13166-1"
       is_visible="true" />
    <inkscape:path-effect
       effect="spiro"
       id="path-effect13014-2"
       is_visible="true" />
    <inkscape:path-effect
       effect="spiro"
       id="path-effect12606-5"
       is_visible="true" />
    <inkscape:path-effect
       effect="spiro"
       id="path-effect13858"
       is_visible="true" />
    <inkscape:path-effect
       effect="spiro"
       id="path-effect12498-4"
       is_visible="true" />
  </defs>
  <sodipodi:namedview
     id="base"
     pagecolor="#ffffff"
     bordercolor="#666666"
     borderopacity="1.0"
     inkscape:pageopacity="0.0"
     inkscape:pageshadow="2"
     inkscape:zoom="1.3158534"
     inkscape:cx="267.34951"
     inkscape:cy="301.32537"
     inkscape:document-units="mm"
     inkscape:current-layer="layer1"
     showgrid="false"
     inkscape:window-width="1920"
     inkscape:window-height="1046"
     inkscape:window-x="-11"
     inkscape:window-y="-11"
     inkscape:window-maximized="1"
     fit-margin-top="0"
     fit-margin-left="0"
     fit-margin-right="0"
     fit-margin-bottom="0"
     inkscape:snap-midpoints="true"
     inkscape:snap-smooth-nodes="true"
     inkscape:snap-nodes="true"
     inkscape:snap-global="false" />
  <metadata
     id="metadata5">
    <rdf:RDF>
      <cc:Work
         rdf:about="">
        <dc:format>image/svg+xml</dc:format>
        <dc:type
           rdf:resource="http://purl.org/dc/dcmitype/StillImage" />
        <dc:title />
      </cc:Work>
    </rdf:RDF>
  </metadata>
  <g
     inkscape:label="Ebene 1"
     inkscape:groupmode="layer"
     id="layer1"
     transform="translate(352.97606,-210.98291)">
    <path
       style="fill:#ffffff;fill-rule:evenodd;stroke:none;stroke-width:2.9104166;stroke-linecap:round;stroke-linejoin:round;stroke-miterlimit:4;stroke-dasharray:none;stroke-opacity:1"
       inkscape:connector-curvature="0"
       d="m -212.95882,212.43812 -0.31676,89.24681 c -1.54218,37.54097 -32.0124,67.27309 -68.96426,67.29411 -36.91862,-0.0461 -67.40024,-29.78887 -68.96426,-67.29411 l -0.31675,-89.24681 h 69.27935 z"
       id="path10563-0-6-2-3-7"
       sodipodi:nodetypes="ccccccc" />
    <path
       style="opacity:1;fill:#ff0000;fill-opacity:1;fill-rule:evenodd;stroke:#000000;stroke-width:0.79374999;stroke-linecap:round;stroke-linejoin:round;stroke-miterlimit:4;stroke-dasharray:none;stroke-opacity:1;paint-order:markers fill stroke"
       d="m -296.72291,269.04655 -3.95531,5.82342 -7.24142,10.66136 3.95531,5.82342 7.24142,-10.66137 7.24142,10.66137 3.95531,-5.82342 3.28611,-4.83795 3.2861,4.83795 3.95532,5.82342 3.95531,-5.82342 3.28611,-4.83795 7.24142,10.66137 3.95531,-5.82342 -7.24142,-10.66136 -3.95531,-5.82342 -3.95532,5.82342 -3.2861,4.83794 -3.28611,-4.83794 -3.95531,-5.82342 -3.95531,5.82342 -3.28611,4.83794 -3.2861,-4.83794 z"
       id="rect853"
       inkscape:connector-curvature="0" />
    <path
       style="fill:#000000;stroke:#000000;stroke-width:0.99999994px;stroke-linecap:butt;stroke-linejoin:miter;stroke-opacity:1"
       d="M 87.070312 30.998047 L 87.070312 116.63672 L 118.91602 116.63672 L 118.33984 132.63086 L 129.66797 132.63086 L 129.66797 130.28906 C 129.66797 121.42879 136.76046 114.29492 145.57031 114.29492 C 154.3802 114.29492 161.4707 121.42879 161.4707 130.28906 L 161.4707 132.63086 L 176.00586 132.63086 L 178.38086 132.63086 L 178.38086 130.28906 C 178.38086 121.42879 185.47331 114.29492 194.2832 114.29492 C 203.09309 114.29492 210.18359 121.42879 210.18359 130.28906 L 210.18359 132.63086 L 224.71875 132.63086 L 227.0918 132.63086 L 227.0918 130.28906 C 227.0918 121.42879 234.18425 114.29492 242.99414 114.29492 C 251.80399 114.29492 258.89453 121.42879 258.89453 130.28906 L 258.89453 132.63086 L 261.26953 132.63086 L 273.42969 132.63086 L 275.80469 132.63086 L 275.80469 130.28906 C 275.80469 121.42879 282.89714 114.29492 291.70703 114.29492 C 300.51688 114.29492 307.60742 121.42879 307.60742 130.28906 L 307.60742 132.63086 L 309.98047 132.63086 L 322.14258 132.63086 L 324.51562 132.63086 L 324.51562 130.28906 C 324.51562 121.42879 331.60812 114.29492 340.41797 114.29492 C 349.22786 114.29492 356.31836 121.42879 356.31836 130.28906 L 356.31836 132.63086 L 370.85352 132.63086 L 373.22656 132.63086 L 373.22656 130.28906 C 373.22656 121.42879 380.32101 114.29492 389.13086 114.29492 C 397.94075 114.29492 405.03125 121.42879 405.03125 130.28906 L 405.03125 132.63086 L 416.35547 132.63086 L 415.7793 116.63672 L 447.62695 116.63672 L 447.62695 30.998047 L 390.39648 30.998047 L 390.39648 68.636719 L 366.94141 68.636719 L 366.94141 30.998047 L 316.18359 30.998047 L 316.18359 68.636719 L 292.72852 68.636719 L 292.72852 30.998047 L 241.96875 30.998047 L 241.96875 68.636719 L 218.51367 68.636719 L 218.51367 30.998047 L 167.75586 30.998047 L 167.75586 68.636719 L 144.30078 68.636719 L 144.30078 30.998047 L 87.070312 30.998047 z M 145.57031 125.07812 C 141.47398 125.07812 138.17383 128.48613 138.17383 132.71875 L 138.17383 140.98438 L 118.03711 140.98438 L 105.66797 484.00391 L 132.7168 548.55273 L 267.34766 548.55273 L 401.97852 548.55273 L 429.0293 484.00391 L 416.6582 140.98438 L 405.03125 140.98438 L 396.52344 140.98438 L 396.52344 132.71875 C 396.52344 128.48613 393.22719 125.07812 389.13086 125.07812 C 385.03453 125.07812 381.73438 128.48613 381.73438 132.71875 L 381.73438 140.98438 L 370.85352 140.98438 L 356.31836 140.98438 L 347.81055 140.98438 L 347.81055 132.71875 C 347.81055 128.48613 344.51433 125.07812 340.41797 125.07812 C 336.32164 125.07812 333.02148 128.48613 333.02148 132.71875 L 333.02148 140.98438 L 322.14258 140.98438 L 309.98047 140.98438 L 307.60742 140.98438 L 299.09961 140.98438 L 299.09961 132.71875 C 299.09961 128.48613 295.80332 125.07812 291.70703 125.07812 C 287.6107 125.07812 284.31055 128.48613 284.31055 132.71875 L 284.31055 140.98438 L 273.42969 140.98438 L 261.26953 140.98438 L 258.89453 140.98438 L 250.38672 140.98438 L 250.38672 132.71875 C 250.38672 128.48613 247.09043 125.07812 242.99414 125.07812 C 238.89781 125.07812 235.59766 128.48613 235.59766 132.71875 L 235.59766 140.98438 L 224.71875 140.98438 L 210.18359 140.98438 L 201.67578 140.98438 L 201.67578 132.71875 C 201.67578 128.48613 198.37953 125.07812 194.2832 125.07812 C 190.18691 125.07812 186.88672 128.48613 186.88672 132.71875 L 186.88672 140.98438 L 176.00586 140.98438 L 161.4707 140.98438 L 152.96289 140.98438 L 152.96289 132.71875 C 152.96289 128.48613 149.66664 125.07812 145.57031 125.07812 z M 186.86719 181.9707 L 267.3457 181.9707 L 347.83008 181.9707 L 347.46094 283.28711 C 345.6694 325.90495 310.27499 359.65775 267.34961 359.68164 C 224.46274 359.62911 189.05318 325.86439 187.23633 283.28711 L 186.86719 181.9707 z "
       transform="matrix(0.26458333,0,0,0.26458333,-352.97606,210.98291)"
       id="path1822-0" />
    <path
       inkscape:connector-curvature="0"
       style="opacity:1;fill:#ffd700;fill-opacity:1;fill-rule:evenodd;stroke:#030000;stroke-width:0.79400009;stroke-linecap:round;stroke-linejoin:round;stroke-miterlimit:4;stroke-dasharray:none;stroke-opacity:1;paint-order:markers fill stroke"
       d="m -282.23989,323.63598 a 23.721029,23.721031 0 0 0 -23.72103,23.72103 23.721029,23.721031 0 0 0 0.0816,1.86293 23.721029,23.72103 0 0 0 -21.49223,-13.74748 23.721029,23.72103 0 0 0 -11.66853,3.08509 c 12.49426,18.37545 33.34663,30.39211 56.80014,30.4214 23.47325,-0.0134 44.32729,-12.01855 56.81566,-30.39608 a 23.721029,23.72103 0 0 0 -11.68353,-3.11041 23.721029,23.72103 0 0 0 -21.50566,13.77746 23.721029,23.721031 0 0 0 0.0946,-1.89291 23.721029,23.721031 0 0 0 -23.72104,-23.72103 z"
       id="path943-2" />
    <path
       style="fill:none;fill-rule:evenodd;stroke:#000000;stroke-width:2.9104166;stroke-linecap:round;stroke-linejoin:round;stroke-miterlimit:4;stroke-dasharray:none;stroke-opacity:1"
       inkscape:connector-curvature="0"
       d="m -212.95882,212.43812 -0.31676,89.24681 c -1.54218,37.54097 -32.0124,67.27309 -68.96426,67.29411 -36.91862,-0.0461 -67.40024,-29.78887 -68.96426,-67.29411 l -0.31675,-89.24681 h 69.27935 z"
       id="path10563-0-6-2-3"
       sodipodi:nodetypes="ccccccc" />
    <path
       inkscape:connector-curvature="0"
       style="opacity:1;fill:#000000;fill-opacity:1;fill-rule:evenodd;stroke:#000000;stroke-width:0.26458332;stroke-linecap:round;stroke-linejoin:round;stroke-miterlimit:4;stroke-dasharray:none;stroke-opacity:1;paint-order:markers fill stroke"
       d="m -278.30322,327.64297 a 12.363391,9.5321928 42.292873 0 0 -0.0594,0.003 14.573052,11.235845 42.292873 0 1 9.12968,4.40799 14.573052,11.235845 42.292873 0 1 5.26066,8.71265 12.363391,9.5321928 42.292873 0 0 -4.7377,-9.28729 12.363391,9.5321928 42.292873 0 0 -9.59321,-3.83594 z m 0.6258,3.11144 a 9.1030612,6.8740249 42.292873 0 0 -0.0434,0.002 10.730017,8.102593 42.292873 0 1 6.69313,3.27835 10.730017,8.102593 42.292873 0 1 3.90261,6.38204 9.1030612,6.8740249 42.292873 0 0 -3.52588,-6.79648 9.1030612,6.8740249 42.292873 0 0 -7.02645,-2.86546 z m -0.1819,2.62051 a 7.0266469,5.1811097 42.292873 0 0 -0.0331,5.3e-4 8.2824922,6.1071092 42.292873 0 1 5.14077,2.5585 8.2824922,6.1071092 42.292873 0 1 3.03806,4.89841 7.0266469,5.1811097 42.292873 0 0 -2.75436,-5.21105 7.0266469,5.1811097 42.292873 0 0 -5.3914,-2.24638 z m -49.98454,6.52208 a 9.5321931,12.363391 79.526174 0 0 -2.56574,0.26149 9.5321931,12.363391 79.526174 0 0 -5.75159,2.33112 c 0.113,0.14375 0.22648,0.28712 0.34055,0.42995 a 11.235845,14.573052 79.526174 0 1 5.55263,-1.99678 11.235845,14.573052 79.526174 0 1 10.11928,1.08314 9.5321931,12.363391 79.526174 0 0 -7.69513,-2.10892 z m 91.22337,0 a 12.363391,9.5321931 10.473826 0 0 -7.69514,2.10892 14.573052,11.235845 10.473826 0 1 10.11979,-1.08314 14.573052,11.235845 10.473826 0 1 5.56917,2.00349 c 0.11349,-0.14224 0.22607,-0.28523 0.33849,-0.42839 a 12.363391,9.5321931 10.473826 0 0 -5.76658,-2.33939 12.363391,9.5321931 10.473826 0 0 -2.56573,-0.26149 z m -91.37065,2.9068 a 6.8740249,9.1030612 79.526174 0 0 -1.88774,0.19534 6.8740249,9.1030612 79.526174 0 0 -4.38475,1.80196 c 0.081,0.0945 0.16138,0.18961 0.24288,0.2837 a 8.102593,10.730017 79.526174 0 1 4.24367,-1.53479 8.102593,10.730017 79.526174 0 1 7.44244,0.75448 6.8740249,9.1030612 79.526174 0 0 -5.6565,-1.50069 z m 91.51792,0 a 9.1030612,6.8740249 10.473826 0 0 -5.6565,1.50069 10.730017,8.102593 10.473826 0 1 7.44296,-0.75448 10.730017,8.102593 10.473826 0 1 4.254,1.54978 c 0.083,-0.0958 0.16456,-0.19309 0.24702,-0.28939 a 9.1030612,6.8740249 10.473826 0 0 -4.39922,-1.81126 9.1030612,6.8740249 10.473826 0 0 -1.88826,-0.19534 z m -91.45384,2.69958 a 5.1811097,7.0266469 79.526174 0 0 -1.4578,0.15348 5.1811097,7.0266469 79.526174 0 0 -3.07474,1.16995 c 0.074,0.0799 0.14887,0.15919 0.22324,0.23875 a 6.1071092,8.2824922 79.526174 0 1 2.9285,-0.99374 6.1071092,8.2824922 79.526174 0 1 5.73815,0.54519 5.1811097,7.0266469 79.526174 0 0 -4.35735,-1.11363 z m 91.39028,0 a 7.0266469,5.1811097 10.473826 0 0 -4.35787,1.11363 8.2824922,6.1071092 10.473826 0 1 5.73867,-0.54519 8.2824922,6.1071092 10.473826 0 1 2.94814,1.00046 c 0.0732,-0.0784 0.14678,-0.15642 0.21962,-0.23513 a 7.0266469,5.1811097 10.473826 0 0 -3.09128,-1.18029 7.0266469,5.1811097 10.473826 0 0 -1.45728,-0.15348 z"
       id="path1045" />
  </g>
</svg>

<svg xmlns="http://www.w3.org/2000/svg" width="534.699" height="602.651" viewBox="0 0 141.472 159.451"><path style="fill:#fff;fill-rule:evenodd;stroke:none;stroke-width:2.9104166;stroke-linecap:round;stroke-linejoin:round;stroke-miterlimit:4;stroke-dasharray:none;stroke-opacity:1" d="m-212.959 212.438-.317 89.247c-1.542 37.54-32.012 67.273-68.964 67.294-36.918-.046-67.4-29.789-68.964-67.294l-.317-89.247h69.28z" transform="translate(352.976 -210.983)"/><path style="opacity:1;fill:red;fill-opacity:1;fill-rule:evenodd;stroke:#000;stroke-width:.79374999;stroke-linecap:round;stroke-linejoin:round;stroke-miterlimit:4;stroke-dasharray:none;stroke-opacity:1;paint-order:markers fill stroke" d="m-296.723 269.047-3.955 5.823-7.242 10.661 3.956 5.824 7.241-10.662 7.242 10.662 3.955-5.824 3.286-4.838 3.286 4.838 3.955 5.824 3.956-5.824 3.286-4.838 7.241 10.662 3.955-5.824-7.24-10.661-3.956-5.823-3.956 5.823-3.286 4.838-3.286-4.838-3.955-5.823-3.955 5.823-3.286 4.838-3.287-4.838z" transform="translate(352.976 -210.983)"/><path style="fill:#000;stroke:#000;stroke-width:.99999994px;stroke-linecap:butt;stroke-linejoin:miter;stroke-opacity:1" d="M87.07 30.998v85.639h31.846l-.576 15.994h11.328v-2.342c0-8.86 7.092-15.994 15.902-15.994 8.81 0 15.9 7.134 15.9 15.994v2.342h16.911v-2.342c0-8.86 7.092-15.994 15.902-15.994 8.81 0 15.9 7.134 15.9 15.994v2.342h16.909v-2.342c0-8.86 7.092-15.994 15.902-15.994 8.81 0 15.9 7.134 15.9 15.994v2.342h16.911v-2.342c0-8.86 7.092-15.994 15.902-15.994 8.81 0 15.9 7.134 15.9 15.994v2.342H324.516v-2.342c0-8.86 7.092-15.994 15.902-15.994 8.81 0 15.9 7.134 15.9 15.994v2.342h16.909v-2.342c0-8.86 7.094-15.994 15.904-15.994 8.81 0 15.9 7.134 15.9 15.994v2.342h11.324l-.576-15.994h31.848V30.998h-57.23v37.639H366.94V30.998h-50.757v37.639h-23.455V30.998h-50.76v37.639h-23.455V30.998h-50.758v37.639H144.3V30.998H87.07zm58.5 94.08c-4.096 0-7.396 3.408-7.396 7.64v8.266h-20.137l-12.369 343.02 27.049 64.549h269.262l27.05-64.55-12.37-343.019h-20.136v-8.265c0-4.233-3.296-7.64-7.392-7.64s-7.397 3.407-7.397 7.64v8.265h-33.923v-8.265c0-4.233-3.297-7.64-7.393-7.64s-7.397 3.407-7.397 7.64v8.265H299.1v-8.265c0-4.233-3.297-7.64-7.393-7.64s-7.396 3.407-7.396 7.64v8.265h-33.924v-8.265c0-4.233-3.297-7.64-7.393-7.64s-7.396 3.407-7.396 7.64v8.265h-33.922v-8.265c0-4.233-3.296-7.64-7.393-7.64-4.096 0-7.396 3.407-7.396 7.64v8.265h-33.924v-8.265c0-4.233-3.296-7.64-7.393-7.64zm41.297 56.893H347.83l-.37 101.316c-1.79 42.618-37.185 76.37-80.11 76.395-42.887-.053-78.297-33.818-80.114-76.395l-.369-101.316z" transform="scale(.26458)"/><path style="opacity:1;fill:gold;fill-opacity:1;fill-rule:evenodd;stroke:#030000;stroke-width:.79400009;stroke-linecap:round;stroke-linejoin:round;stroke-miterlimit:4;stroke-dasharray:none;stroke-opacity:1;paint-order:markers fill stroke" d="M-282.24 323.636a23.721 23.721 0 0 0-23.72 23.721 23.721 23.721 0 0 0 .08 1.863 23.721 23.721 0 0 0-21.492-13.748 23.721 23.721 0 0 0-11.668 3.086c12.494 18.375 33.347 30.392 56.8 30.42 23.473-.012 44.327-12.018 56.816-30.395a23.721 23.721 0 0 0-11.684-3.11 23.721 23.721 0 0 0-21.505 13.777 23.721 23.721 0 0 0 .094-1.893 23.721 23.721 0 0 0-23.72-23.721z" transform="translate(352.976 -210.983)"/><path style="fill:none;fill-rule:evenodd;stroke:#000;stroke-width:2.9104166;stroke-linecap:round;stroke-linejoin:round;stroke-miterlimit:4;stroke-dasharray:none;stroke-opacity:1" d="m-212.959 212.438-.317 89.247c-1.542 37.54-32.012 67.273-68.964 67.294-36.918-.046-67.4-29.789-68.964-67.294l-.317-89.247h69.28z" transform="translate(352.976 -210.983)"/><path style="opacity:1;fill:#000;fill-opacity:1;fill-rule:evenodd;stroke:#000;stroke-width:.26458332;stroke-linecap:round;stroke-linejoin:round;stroke-miterlimit:4;stroke-dasharray:none;stroke-opacity:1;paint-order:markers fill stroke" d="M-278.303 327.643a12.363 9.532 42.293 0 0-.06.003 14.573 11.236 42.293 0 1 9.13 4.408 14.573 11.236 42.293 0 1 5.26 8.713 12.363 9.532 42.293 0 0-4.737-9.288 12.363 9.532 42.293 0 0-9.593-3.836zm.626 3.111a9.103 6.874 42.293 0 0-.044.002 10.73 8.103 42.293 0 1 6.693 3.279 10.73 8.103 42.293 0 1 3.903 6.382 9.103 6.874 42.293 0 0-3.526-6.797 9.103 6.874 42.293 0 0-7.026-2.865zm-.182 2.62a7.027 5.181 42.293 0 0-.033.001 8.282 6.107 42.293 0 1 5.14 2.559 8.282 6.107 42.293 0 1 3.038 4.898 7.027 5.181 42.293 0 0-2.754-5.21 7.027 5.181 42.293 0 0-5.391-2.247zm-49.985 6.523a9.532 12.363 79.526 0 0-2.566.261 9.532 12.363 79.526 0 0-5.751 2.332l.34.43a11.236 14.573 79.526 0 1 5.553-1.997 11.236 14.573 79.526 0 1 10.12 1.083 9.532 12.363 79.526 0 0-7.696-2.109zm91.224 0a12.363 9.532 10.474 0 0-7.696 2.109 14.573 11.236 10.474 0 1 10.12-1.083 14.573 11.236 10.474 0 1 5.57 2.003l.338-.428a12.363 9.532 10.474 0 0-5.767-2.34 12.363 9.532 10.474 0 0-2.565-.261zm-91.371 2.907a6.874 9.103 79.526 0 0-1.888.195 6.874 9.103 79.526 0 0-4.385 1.802l.243.284a8.103 10.73 79.526 0 1 4.244-1.535 8.103 10.73 79.526 0 1 7.442.754 6.874 9.103 79.526 0 0-5.656-1.5zm91.518 0a9.103 6.874 10.474 0 0-5.657 1.5 10.73 8.103 10.474 0 1 7.443-.754 10.73 8.103 10.474 0 1 4.254 1.55l.247-.29a9.103 6.874 10.474 0 0-4.399-1.81 9.103 6.874 10.474 0 0-1.888-.196zm-91.454 2.7a5.181 7.027 79.526 0 0-1.458.153 5.181 7.027 79.526 0 0-3.075 1.17l.224.239a6.107 8.282 79.526 0 1 2.928-.994 6.107 8.282 79.526 0 1 5.738.545 5.181 7.027 79.526 0 0-4.357-1.114zm91.39 0a7.027 5.181 10.474 0 0-4.358 1.113 8.282 6.107 10.474 0 1 5.739-.545 8.282 6.107 10.474 0 1 2.948 1l.22-.235a7.027 5.181 10.474 0 0-3.091-1.18 7.027 5.181 10.474 0 0-1.458-.154z" transform="translate(352.976 -210.983)"/></svg>
